components/ui-node-icon/src/replace/replace.medium.svg

<svg width="24" height="24" viewBox="0 0 24 24" fill="none" xmlns="http://www.w3.org/2000/svg">
  <path d="M13 5C13 3.89543 13.8954 3 15 3H20C21.1046 3 22 3.89543 22 5V9C22 10.1046 21.1046 11 20 11H15C13.8954 11 13 10.1046 13 9V5Z" fill="var(--tbl--colors--icons--clean--secondary)"/>
  <path fill-rule="evenodd" clip-rule="evenodd" d="M7.00003 5.5C6.44774 5.5 6.00003 5.94772 6.00003 6.5V8H7.00003C7.40449 8 7.76913 8.24364 7.92391 8.61732C8.07869 8.99099 7.99313 9.42111 7.70714 9.70711L5.70714 11.7071C5.31661 12.0976 4.68345 12.0976 4.29292 11.7071L2.29292 9.70711C2.00692 9.42111 1.92137 8.99099 2.07615 8.61732C2.23093 8.24364 2.59557 8 3.00003 8H4.00003V6.5C4.00003 4.84315 5.34317 3.5 7.00003 3.5H9.00003C9.55231 3.5 10 3.94771 10 4.5C10 5.05228 9.55231 5.5 9.00003 5.5L7.00003 5.5ZM2 16C2 14.8954 2.89543 14 4 14H9C10.1046 14 11 14.8954 11 16V20C11 21.1046 10.1046 22 9 22H4C2.89543 22 2 21.1046 2 20V16ZM18 18.5C18 19.0523 17.5523 19.5 17 19.5L15 19.5C14.4477 19.5 14 19.9477 14 20.5C14 21.0523 14.4477 21.5 15 21.5H17C18.6568 21.5 20 20.1569 20 18.5V17H21C21.4044 17 21.7691 16.7564 21.9239 16.3827C22.0786 16.009 21.9931 15.5789 21.7071 15.2929L19.7071 13.2929C19.3166 12.9024 18.6834 12.9024 18.2929 13.2929L16.2929 15.2929C16.0069 15.5789 15.9213 16.009 16.0761 16.3827C16.2309 16.7564 16.5955 17 17 17H18V18.5Z" fill="var(--tbl--colors--icons--clean--primary)"/>
</svg>

<svg xmlns="http://www.w3.org/2000/svg" width="24" height="24" fill="none" viewBox="0 0 24 24">
  <path fill="var(--tbl--colors--icons--clean--secondary)" d="M13 5a2 2 0 0 1 2-2h5a2 2 0 0 1 2 2v4a2 2 0 0 1-2 2h-5a2 2 0 0 1-2-2V5Z"/>
  <path fill="var(--tbl--colors--icons--clean--primary)" fill-rule="evenodd" d="M7 5.5a1 1 0 0 0-1 1V8h1a1 1 0 0 1 .707 1.707l-2 2a1 1 0 0 1-1.414 0l-2-2A1 1 0 0 1 3 8h1V6.5a3 3 0 0 1 3-3h2a1 1 0 0 1 0 2H7ZM2 16a2 2 0 0 1 2-2h5a2 2 0 0 1 2 2v4a2 2 0 0 1-2 2H4a2 2 0 0 1-2-2v-4Zm16 2.5a1 1 0 0 1-1 1h-2a1 1 0 1 0 0 2h2a3 3 0 0 0 3-3V17h1a1 1 0 0 0 .707-1.707l-2-2a1 1 0 0 0-1.414 0l-2 2A1 1 0 0 0 17 17h1v1.5Z" clip-rule="evenodd"/>
</svg>
